X:1
T:title
M:4/4
Q:120
L:1/8
R:Reel
K:C
 ^b3 _d2 _C3 | d'4E3C |  ^c3 _F3 _C _c |  _d4 ^d'3 ^G |  _C4 _b4 |  ^f'3 _b4 ^d' |  ^a'2 ^b'4 _f'2 |  _d2 ^d'4 _F2 | 